X:1251
T:St Garmon.
C:John Malchair's Third Collection of Tunes
F:https://www.vwml.org/record/Malchair/3619/p125
F:www.vwml.org/topics/historic-dance-and-tune-books/Malchair
Z:Eric Conrad Feb 2020
N:NB1 Transcription here is extremely literal, preserving stem direction.  No attempt has been made
N:    to adjust the tempo as this page in the MS seems to be a student exercise in transcription.
N:NB2 The stem down D is written separately from the stem up D in tne MS.
M:3/2
L:1/4
%%score {(S A) (T B)}
V:S clef=treble         % stem up
V:A clef=treble         % stem down
V:T clef=bass octave=-1 % stem up
V:B clef=bass octave=-2 % stem down
K:G
V:S
"^NB1"D4 [FA]2 | B4 "^NB2"[DGd]2 | [Gc]4 [DGB]2 | [CFA]2 G4 || [DA]4 [DB]2 | [DA]4 [Fd]2 | [Fd]4 [Ec]2 | [Dd]4 |]
V:A
x6 | G4 D2 | E4 x2 | x2 B,4 || x6 | x6 | x6 | x4 |]
V:T
x6 | G4 B,2 | x6 | D2 A,4 || x6 | x6 | x6 | x4 |]
V:B
[GB]4 [da]2 | x6 | c4 g2 | x6 || [df]4 g2 | [fa]4 [da]2 | a4 [Ag]2 | [df]4 |]

% %%%%%%%%%%%%%%%%%%%%%%%%%%%%%%%%%%%%%%%%%%%%%%%%%%%%%%%%%%%%%%%%%%%%%%%%%%%%%%%%%%%%
% PAGES 126-134
% %%%%%%%%%%%%%%%%%%%%%%%%%%%%%%%%%%%%%%%%%%%%%%%%%%%%%%%%%%%%%%%%%%%%%%%%%%%%%%%%%%%%

